svgs/regular/utility-pole.svg

<svg xmlns="http://www.w3.org/2000/svg" viewBox="0 0 512 512"><!--! Font Awesome Pro 6.6.0 by @fontawesome - https://fontawesome.com License - https://fontawesome.com/license (Commercial License) Copyright 2024 Fonticons, Inc. --><path d="M280 24c0-13.3-10.7-24-24-24s-24 10.7-24 24l0 56L128 80l0-24c0-13.3-10.7-24-24-24S80 42.7 80 56l0 24L64.2 80c-.2 0-.3 0-.5 0L48 80l0-24c0-13.3-10.7-24-24-24S0 42.7 0 56L0 88c0 22.1 17.9 40 40 40l43.2 0L232 227.2l0 68.8 0 192c0 13.3 10.7 24 24 24s24-10.7 24-24l0-192 0-68.8L428.8 128l43.2 0c22.1 0 40-17.9 40-40l0-32c0-13.3-10.7-24-24-24s-24 10.7-24 24l0 24-15.8 0c-.2 0-.3 0-.5 0L432 80l0-24c0-13.3-10.7-24-24-24s-24 10.7-24 24l0 24L280 80l0-56zm91.2 104L280 188.8l0-60.8 91.2 0zM232 188.8L140.8 128l91.2 0 0 60.8z"/></svg>

<svg xmlns="http://www.w3.org/2000/svg" viewBox="0 0 512 512"><!--! Font Awesome Pro 6.5.2 by @fontawesome - https://fontawesome.com License - https://fontawesome.com/license (Commercial License) Copyright 2024 Fonticons, Inc. --><path d="M280 24c0-13.3-10.7-24-24-24s-24 10.7-24 24V80H128V56c0-13.3-10.7-24-24-24S80 42.7 80 56V80H64.2c-.2 0-.3 0-.5 0H48V56c0-13.3-10.7-24-24-24S0 42.7 0 56V88c0 22.1 17.9 40 40 40H83.2L232 227.2V296 488c0 13.3 10.7 24 24 24s24-10.7 24-24V296 227.2L428.8 128H472c22.1 0 40-17.9 40-40V56c0-13.3-10.7-24-24-24s-24 10.7-24 24V80H448.2c-.2 0-.3 0-.5 0H432V56c0-13.3-10.7-24-24-24s-24 10.7-24 24V80H280V24zm91.2 104L280 188.8V128h91.2zM232 188.8L140.8 128H232v60.8z"/></svg>
